X:164
T:Killavil Postman, The
R:polka
Z:id:hn-polka-164
M:2/4
L:1/8
K:G
B/c/ | dg g>e | d/e/d/c/ B/A/G/E/ | DG GA | B2 B>c |
dg g>e | d/e/d/c/ B/A/G | Aa ab | a2 ad/e/ |
gb g>e | d/e/d/c/ B/A/G/E/ | DG GA | B2 Bd |
ee/B/ c/B/A | d/e/d/c/ B/A/G/E/ | DG GA | G2 Gg/a/ ||
b>f g/f/e | bb/f/ g/f/e | bb bc' | b4 |
aa/f/ g/f/e | aa/f/ g/f/e | aa ab | f4 |
bb/f/ g/f/e | bb/f/ g/f/e | bb bc' | b2 g>a |
bb aa | gg f2 | aa/g/ f/g/a/g/ | f/g/e/f/ d ||

